X:1
T:In drinking full Bumpers
T:In drinking full Bumpers
T:by Jeremy Clarke
%%score [ 1 2 3 ]
L:1/8
Q:1/4=80
M:3/4
K:A
V:1 treble nm="I"
V:2 treble nm="II"
V:3 treble nm="III"
V:1
 E2 | C2 C2 D2 | E2 A,2 A2 | F2 B2 F2 |{A} G4 G2 | A2 A2 B2 | c2 (cd) e2 | c3 d{c} B2 | A4 :| %9
w: In|drink- ing full|Bump- ers there|is no de-|ceit, then|let's not re-|pine at _ our|set- ting up|late,|
V:2
 G2 | A2 E2 F2 | G2 c2 c2 | A2 d3 d |{c} B4 E D | C2 A2 G2 | A2 E2 c2 | A3 B{A} G2 | A4 :| %9
w: Come|light all your|Pipes up, no|Sun we do|need, we can|see what we|drink by the|light of the|Weed,|
V:3
 E E | A2 A,2 D2 | C2 A,2 A,2 | D2 B,3 B, | E4 E E | (E>D) C2 B,2 | A,2 (A,B,) C2 | D3 B, E2 | %8
w: may our|Jol- ly Club|ne'er by in-|trud- ers be|broke, then our|Sor- * row in|Clouds shall _ as-|cend like our|
 A,4 :| %9
w: Smoak.|

